X: 28
T: The Shepherds Hornpipe
T: The Liverpool Hornpipe
R: hornpipe, reel
M: C|
L: 1/8
N: This tune is instantly recognisable as the Liverpool Hornpipe but with a few individual touches.
N: The beat count gets confused at phrase boundaries.
N: The player may have added an extra half measure to each part.
Z: 2010 John Chambers <jc:trillian.mit.edu>
B: Anonymous manuscript tune book (1800-1840) p.16
F: http://www.asaplive.com/archive/browse_by_collection.asp
N: The asaplive.com web site is complex, and links to its files don't usually work.
K: D
AG |\
   FDFA dfaf | gefd dcBA | GBGB FAFA | EFGA GFED |
   FDFA dfaf | gefd dcBA | f2fg afdf | gedc d2 | d4 :|
|: dffd cece | BddB BAGF | GBGB FAFA | EFGA GFED |
   FDFA dfaf | gefd dcBA | f2fg afdf | gedc d2d2 d2 :|


%%sep 5 1 500

